packages/Snappmarket/src/PencilIcon/index.svg

<svg
  xmlns="http://www.w3.org/2000/svg"
  width="32pt"
  height="32pt"
  viewBox="0 0 32 32"
  version="1.1"
  id="PencilIcon"
>
  <g>
    <path d="M 29.316406 1.441406 C 27.398438 -0.480469 24.285156 -0.480469 22.367188 1.441406 L 2.882812 20.925781 C 2.75 21.058594 2.652344 21.222656 2.601562 21.40625 L 0.0390625 30.65625 C -0.0664062 31.035156 0.0429688 31.441406 0.320312 31.71875 C 0.597656 31.996094 1.003906 32.105469 1.382812 32 L 10.632812 29.4375 C 10.816406 29.386719 10.980469 29.289062 11.113281 29.15625 L 30.597656 9.671875 C 32.515625 7.75 32.515625 4.640625 30.597656 2.722656 Z M 5.261719 21.632812 L 21.207031 5.6875 L 26.351562 10.828125 L 10.40625 26.777344 Z M 4.234375 23.695312 L 8.34375 27.804688 L 2.660156 29.378906 Z M 29.054688 8.128906 L 27.898438 9.285156 L 22.753906 4.140625 L 23.910156 2.984375 C 24.976562 1.917969 26.707031 1.917969 27.773438 2.984375 L 29.054688 4.265625 C 30.121094 5.332031 30.121094 7.058594 29.054688 8.128906 Z M 29.054688 8.128906 "/>
  </g>
</svg>

<svg xmlns="http://www.w3.org/2000/svg" viewBox="0 0 32 32">
  <path d="M29.316 1.441a4.909 4.909 0 00-6.949 0L2.883 20.926a1.09 1.09 0 00-.281.48l-2.563 9.25A1.091 1.091 0 001.383 32l9.25-2.563a1.09 1.09 0 00.48-.28L30.598 9.671a4.916 4.916 0 000-6.95zM5.262 21.633L21.207 5.688l5.145 5.14-15.946 15.95zm-1.028 2.062l4.11 4.11-5.684 1.574zM29.054 8.13l-1.156 1.156-5.144-5.144 1.156-1.157a2.732 2.732 0 013.863 0l1.282 1.282a2.732 2.732 0 010 3.863zm0 0"/>
</svg>
